X: 11295
T: Each Little Thing
R: jig
M: 6/8
K: Dmajor
A,|B,>DE|FA2-|A2D|E>FA|Bd2-|d2e|d>cB|A3-|
A2B|A>FE|F3-|F2 A,|B,>DE|FA2-|A2D|E>FA|
Bd2-|d2e|d>cB|A3|-A2F|E>DD|D3|-D2:|
a|f>ed|f3|-f2a|f>ed|d3|- d2A|B>df|e3|
-e2f|e>dA|B d2|- d2e|d>cB|A d2|-d2B|A>FE|
F3|- F2A|F>ED|B,E2|-E2F|E>DD|D3|-D2:|

